rospo-dark/16x16/actions/meeting-participant-no-response.svg

<svg height="16" viewBox="0 0 16 16" width="16" xmlns="http://www.w3.org/2000/svg"><path d="m7 3c-1.6569 0-3 1.3432-3 3s1.3431 3 3 3 3-1.3432 3-3-1.3431-3-3-3zm0 7c-6.0002.003-6 4-6 4v1h12v-1s-.00023-4.003-6-4z" fill="#d3dae3"/><path d="m13 2a1 1 0 0 0 -1 1 1 1 0 0 0 1 1 1 1 0 0 0 1-1 1 1 0 0 0 -1-1zm0 3a1 1 0 0 0 -1 1 1 1 0 0 0 1 1 1 1 0 0 0 1-1 1 1 0 0 0 -1-1zm0 3a1 1 0 0 0 -1 1 1 1 0 0 0 1 1 1 1 0 0 0 1-1 1 1 0 0 0 -1-1z" fill="#d3dae3" opacity=".3"/></svg>

<?xml version="1.0" encoding="UTF-8" standalone="no"?>
<svg xmlns="http://www.w3.org/2000/svg" width="22" height="22" viewBox="0 0 22 22">
 <defs>
  <style type="text/css" id="current-color-scheme">
   .ColorScheme-Text { color:#d3dae3; } .ColorScheme-Highlight { color:#5294e2; }
  </style>
 </defs>
 <path style="fill:currentColor;opacity:1" class="ColorScheme-Text" transform="translate(3 3)" d="M 7 3 C 5.3431 3 4 4.3432 4 6 C 4 7.6568 5.3431 9 7 9 C 8.6569 9 10 7.6568 10 6 C 10 4.3432 8.6569 3 7 3 z M 7 10 C 0.9998 10.003 1 14 1 14 L 1 15 L 13 15 L 13 14 C 13 14 12.99977 9.997 7 10 z"/>
 <path style="fill:currentColor;opacity:0.3" class="ColorScheme-Text" transform="translate(3 3)" d="M 13 2 A 1 1 0 0 0 12 3 A 1 1 0 0 0 13 4 A 1 1 0 0 0 14 3 A 1 1 0 0 0 13 2 z M 13 5 A 1 1 0 0 0 12 6 A 1 1 0 0 0 13 7 A 1 1 0 0 0 14 6 A 1 1 0 0 0 13 5 z M 13 8 A 1 1 0 0 0 12 9 A 1 1 0 0 0 13 10 A 1 1 0 0 0 14 9 A 1 1 0 0 0 13 8 z"/>
</svg>
